assets/images/vector/icons/box_archive_icon.svg

<svg fill="none" height="52" viewBox="0 0 59 52" width="59" xmlns="http://www.w3.org/2000/svg"><g stroke="#111" stroke-linecap="round" stroke-linejoin="round" stroke-width="10"><path d="m48.3333 16.6667v23.3334c0 3.6833-2.9833 6.6666-6.6666 6.6666h-25c-3.6834 0-6.6667-2.9833-6.6667-6.6666v-23.3334"/><path d="m50 5h-41.66667c-1.84095 0-3.33333 1.49238-3.33333 3.33333v4.99997c0 1.841 1.49238 3.3334 3.33333 3.3334h41.66667c1.841 0 3.3333-1.4924 3.3333-3.3334v-4.99997c0-1.84095-1.4923-3.33333-3.3333-3.33333z"/><path d="m22.5 26.6667h13.3333"/></g></svg>

<svg width="59" height="52" viewBox="0 0 59 52" fill="none" xmlns="http://www.w3.org/2000/svg">
<path d="M48.3333 16.6667V40.0001C48.3333 43.6834 45.35 46.6667 41.6667 46.6667H16.6667C12.9833 46.6667 10 43.6834 10 40.0001V16.6667" stroke="#111111" stroke-width="10" stroke-linecap="round" stroke-linejoin="round"/>
<path d="M50 5H8.33333C6.49238 5 5 6.49238 5 8.33333V13.3333C5 15.1743 6.49238 16.6667 8.33333 16.6667H50C51.841 16.6667 53.3333 15.1743 53.3333 13.3333V8.33333C53.3333 6.49238 51.841 5 50 5Z" stroke="#111111" stroke-width="10" stroke-linecap="round" stroke-linejoin="round"/>
<path d="M22.5 26.6667H35.8333" stroke="#111111" stroke-width="10" stroke-linecap="round" stroke-linejoin="round"/>
</svg>
